!!!OTL: Zhi bu
!!!ARE: Asia, China,ÿHebei, Changli
!! IV, 60
!!!SCT: C1636
!!!YEM: Copyright 1995, estate of Helmut Schaffrath.
**kern
*ICvox
*Ivox
!! Mixed meters:  2/4; 1/4
*M2/4
*k[b-e-]
*B-:
{16gg
16bb-
8gg
4gg
=1
8ccc
16ddd
16bb-
8ccc
[8ccc
=2
8ccc]
8ccc
8gg
8ccc
=3
4bb-
8bb-
8gg}
=4
{16gg
16bb-
8gg
4gg
=5
8ccc
16fff
16ddd
8ccc
8bb-
=6
16gg
16bb-
8gg
8ccc
16gg
16gg
=7
8ff
16ee-
16dd
4cc}
=8
{8aa
16ccc
16aa
4gg
=9
8dd
8gg
8r
8bb-
=10
16gg
16bb-
16gg
16ff
8ee-
8cc
=11
8ff
16ee-
16dd
4cc}
=12
{8gg
16gg
16bb-
8gg
8gg
=13
8fff
8ddd
4ccc
=14
8gg
8bb-
16gg
16bb-
16gg
16bb-
=15
8fff
8ddd
8ccc
8ccc}
=16
*M1/4
{8r
8ccc
=17
*M2/4
16gg
16bb-
8gg
4gg
=18
8ccc
16fff
16ddd
8ccc
8bb-
=19
8ff
16dd
16ff
8aa
8gg
=20
8dd
8gg
8ff
8dd
=21
4.cc}
{8ccc
=22
16gg
16bb-
8gg
4gg
=23
8ccc
16fff
16ddd
8ccc
8bb-
=24
8ff
16dd
16ff
8aa
8gg
=25
8dd
8gg
8ff
8dd
=26
2cc}
==
!!!AGN: Xiaodiao
!!!AMT: irregular
!!!AIN: vox
!!!EED: Helmut Schaffrath
!!!EEV: 1.0
*-
!!!ONB: Tied note syntax fixed by Craig Sapp, 2004/05/03/
